X: 24
T: Four and Twenty
M:2/4
L:1/8
S:Viola "Mom" Ruth - Pioneer Western Folk Tunes (1948)
Z:AK/Fiddler's Companion
K:C
cc c/G/E/G/|AA A2|BB B/G/A/B/|c>e G2|
cc c/G/E/G/|AA A2|BB B/G/A/B/|c/B/c/d/ c2:|
|:e2 c>G|AF F2|d2 B>G|AE E2|A2 G>E|FA d2|BGAB|c/B/c/d/ c2:|

%%sep 1 1 500
